src/static/logos/woopra.svg

<?xml version="1.0" encoding="UTF-8" standalone="no"?>
<svg width="256px" height="152px" viewBox="0 0 256 152" version="1.1" xmlns="http://www.w3.org/2000/svg" xmlns:xlink="http://www.w3.org/1999/xlink" preserveAspectRatio="xMidYMid">
    <g>
        <path d="M182.776422,67.0342543 C177.194415,59.7923895 171.671237,52.6257358 166.162207,45.4784434 C181.821017,28.3854085 202.75131,21.673745 222.957043,29.0183735 C243.321391,36.4203413 256.866098,55.826305 255.956862,77.2629695 C255.14071,96.5036176 246.101969,111.239044 228.932978,120.073747 C211.122831,129.237591 193.662676,127.26274 177.262924,116.003409 C165.22244,107.73763 156.31327,96.3889393 147.352719,85.0975875 C138.25515,73.6349628 129.364597,61.9802146 119.745763,50.9673674 C110.84404,40.7758855 100.33682,32.4587247 86.734029,29.1539025 C61.462341,23.0148862 35.2315247,38.986456 29.0939977,64.2030389 C22.8708343,89.7718482 38.2288004,115.796392 63.4409152,122.273486 C81.9622172,127.031894 97.8079387,121.391059 111.380199,108.894839 C119.109074,101.778823 126.026265,93.7811233 133.589081,85.8876768 C139.056409,92.72221 144.820859,99.9260969 150.944982,107.580506 C147.836751,111.170535 144.718095,114.972048 141.390189,118.580694 C128.242388,132.841024 113.401964,144.525559 94.1456774,149.496196 C50.6944885,160.714571 5.98183749,130.200443 0.583762626,85.6054488 C-4.60133812,42.7700977 25.3133347,4.85846996 68.0987933,0.42250197 C88.6642001,-1.71021791 107.038058,4.30965203 123.454193,16.7060863 C138.190364,27.8343565 149.434057,42.1907485 160.659879,56.592565 C167.521964,65.3959918 174.311073,74.2828211 181.662404,82.6677464 C185.536894,87.0865871 190.214878,91.009481 195.119985,94.2673894 C203.166833,99.6111037 212.082704,98.9654793 219.422864,93.4288968 C226.451755,88.1261391 229.685834,79.0062297 227.524072,70.5788586 C225.291567,61.8729829 217.850132,55.2097226 208.908198,54.0152803 C203.460975,53.2869981 198.526082,54.9431326 194.159368,57.9962581 C190.320621,60.6792852 186.796867,63.8128346 182.776422,67.0342543" fill="#000000"></path>
    </g>
</svg>

<svg width="256" height="152" xmlns="http://www.w3.org/2000/svg" preserveAspectRatio="xMidYMid"><path d="M182.776 67.034l-16.614-21.556c15.659-17.093 36.59-23.804 56.795-16.46 20.364 7.402 33.91 26.808 33 48.245-.816 19.24-9.855 33.976-27.024 42.81-17.81 9.165-35.27 7.19-51.67-4.07-12.04-8.265-20.95-19.614-29.91-30.905-9.098-11.463-17.988-23.118-27.607-34.13-8.902-10.192-19.41-18.51-33.012-21.814-25.272-6.14-51.502 9.832-57.64 35.049-6.223 25.569 9.135 51.593 34.347 58.07 18.521 4.759 34.367-.882 47.94-13.378 7.728-7.116 14.645-15.114 22.208-23.007l17.356 21.693c-3.108 3.59-6.227 7.391-9.555 11-13.148 14.26-27.988 25.945-47.244 30.915C50.694 160.715 5.982 130.2.584 85.606-4.601 42.77 25.314 4.857 68.099.422c20.565-2.133 38.94 3.887 55.355 16.283 14.736 11.128 25.98 25.485 37.206 39.887 6.862 8.803 13.651 17.69 21.002 26.075 3.875 4.419 8.553 8.341 13.458 11.6 8.047 5.343 16.963 4.697 24.303-.84 7.029-5.302 10.263-14.422 8.101-22.85-2.232-8.705-9.674-15.368-18.616-16.563-5.447-.728-10.382.928-14.749 3.981-3.838 2.683-7.362 5.817-11.383 9.038"/></svg>
